X:1
T:Magnificat in E-flat major
T:BWV 243a D: Virga Jesse floruit (to be inserted between 9 and 10) Note: Reconstructed measures 30 - 51 based on BWV 110 (Duett).
T:J. S. Bach 
%%score 1 2 3 4
L:1/8
Q:1/4=108
M:12/8
K:F
V:1 treble nm="Soprano"
V:2 bass nm="Bariton"
V:3 bass nm="Violoncello"
V:4 bass nm="Organ"
V:1
 z12 | z12 | z12 | z12 | FAc dPcB c/B/c/d/A/c/ B/A/B/c/G/B/ | %5
 Acf- fg/f/e/d/ c/B/c/d/A/c/ B/A/B/c/G/B/ | A3- Ad/c/B/A/ G3- G/A/B/c/d/e/ | %7
 f3- f/e/g/f/e/d/ e>dc z2 f | dcB BAG c3- cd/c/B/A/ | %9
 B/g/f/e/d/c/ B/A/c/B/A/G/ A/G/F/G/A/B/ A/G/A/B/c/d/ | =B3- B/A/B/c/d/e/ c3- c/B/c/d/e/f/ | %11
 d3- d/=B/c/d/e/f/ ef/e/d/c/ z3 | ceg aPgf g/f/g/a/e/g/ f/e/f/g/d/f/ | %13
 e/d/e/f/c/e/ d/c/d/e/=B/d/ c/B/c/d/e/c/ f3- | fe/d/c/=B/ e3- e/d/c/B/A/G/ A/g/f/e/d/c/ | %15
 g/f/e/d/c/=B/ c>de z2 f dcB | =BAG c3- c/a/g/f/e/d/ cdB | .c3 z3 z6 | z12 | z12 | z12 | %21
 fc/B/A/G/ F_e/d/e dcB z2 d | e/d/e/f/g ed/^c/d c/=B/c/d/e- e/d/f/e/d/c/ | %23
 d/^c/d/e/f- f/e/g/f/e/d/ e/d/e/f/g- g/f/a/g/f/e/ | f3- f/e/g/f/e/d/ e3- e/d/f/e/d/^c/ | %25
 d3- dG/F/G/E/ ^c>=BA z2 d | BAG BAG A/G/F/E/F/A/ d3- | d/f/e/d/^c/d/ c2 d .d3 z3 | z12 | %29
 z2 A f3 d3- de/d/c/B/ | c3- cB/A/G/F/ B3- Bc/B/A/G/ | A3- AG/F/E/D/ GAB FE/D/E | .D3 z3 z6 | z12 | %34
 z12 | z6 A2 G FEF | Fdc =Bcd z GF EDE | Ec=B ABc z FE DCD | D=BA ^GAB BAB G2 A | .A3 z3 z6 | %40
 z6 z3 e2 d | cA=B c/d/c/_B/A/G/ ^F/E/F/G/A- A/G/A/B/c/A/ | %42
 BGA B/c/B/A/G/F/ E/D/E/F/G- G/F/G/A/B/G/ | AFG A/B/A/G/F/E/ D/C/D/F/B- B/c/B/A/G/F/ | %44
 E/D/E/G/c- c/d/c/B/A/G/ F/E/F/A/d- dc/B/A/G/ | cFB ABG Fcc cfc | A/G/A/B/c ccc cfc AB/A/B/G/ | %47
 .F3 z3 z6 |] z12 | z12 | z12 |] %51
V:2
 z12 | z12 | z12 | z12 | z6 F,A,C DPCB, | %5
 C/B,/C/D/A,/C/ B,/A,/B,/C/G,/B,/ A,/G,/A,/B,/F,/A,/ G,/F,/G,/A,/E,/G,/ | %6
 F,G,/A,/B,/C/ D3- DE/D/C/B,/ C3- | C/D,/E,/F,/G,/A,/ B,3- B,/A,/C/B,/A,/G,/ A,>G,F, | %8
 z3 z2 B, A,G,F, F,E,D, | G,3- G,A,/G,/F,/E,/ F,3- F,/E,/F,/G,/F,/E,/ | %10
 D,/C,/D,/E,/F,/G,/ E,3- E,/D,/E,/F,/G,/A,/ F,3- | F,/D,/E,/F,/G,/A,/ =B,>A,G, C,E,G, A,PG,F, | %12
 G,/F,/G,/A,/E,/G,/ F,/E,/F,/G,/D,/F,/ E,G,C- CD/C/=B,/A,/ | %13
 G,/F,/G,/A,/E,/G,/ F,/E,/F,/G,/D,/F,/ E,3- E,A,/G,/F,/E,/ | %14
 D,3- D,/E,/F,/G,/A,/=B,/ C3- C/B,/D/C/B,/A,/ | =B,>A,G, z2 C A,G,F, F,E,D, | %16
 G,3- G,/C,/D,/E,/F,/G,/ A,/C/=B,/A,/G,/F,/ E,F,D, | .C,3 z3 z6 | z12 | z12 | %20
 z6 CG,/F,/E,/D,/ C,B,/A,/B, | A,G,F, z2 A, B,/A,/B,/C/D B,A,/G,/A, | %22
 G,/F,/G,/A,/B,- B,/A,/B,/A,/G,/F,/ E,/D,/E,/F,/G,- G,/F,/A,/G,/F,/E,/ | %23
 F,/E,/F,/G,/A,- A,/G,/B,/A,/G,/F,/ G,/F,/G,/A,/B,- B,^C,/=B,,/C,/A,,/ | %24
 D,/^C,/D,/E,/F,/D,/ B,3- B,/A,/C/B,/A,/G,/ A,3- | %25
 A,D,/C,/D,/B,,/ G,3- G,/B,/A,/G,/F,/E,/ F,>E,D, | z3 z2 G, F,E,D, F,E,D, | %27
 G,/F,/G,/A,/B,/G,/ F,E,/D,/E, .D,3 z3 | z6 z3 z2 A, | %29
 F,/E,/D,/E,/F,/G,/ A,/=B,/C/B,/D C_B,/A,/G,/F,/ B,3 | B,A,/G,/F,/E,/ A,3- A,G,/F,/E,/D,/ G,3- | %31
 G,F,/E,/D,/^C,/ D,3- D,F,E, C,3 | .D,3 z3 z6 | z12 | z12 | %35
 z3 A,2 G, F,D,/E,/F,/G,/ A,/=B,/C/B,/C/D/ | %36
 =B,/A,/B,/C/D- D/C/B,/A,/G,/F,/ E,/D,/C,/D,/E,/F,/ G,/A,/B,/A,/B,/C/ | %37
 A,/^G,/A,/=B,/C- C/B,/A,/=G,/F,/E,/ D,/C,/=B,,/C,/D,/E,/ ^F,/^G,/A,/G,/A,/B,/ | %38
 ^G,/^F,/G,/A,/=B,/C/ DCB, EA,D B,2 A, | .A,3 z3 z6 | z12 | E2 D CB,C CA,G, ^F,G,A, | %42
 z DC B,A,B, B,G,F, E,F,G, | z2 C C/D/C/B,/A,/G,/ F,/A,/B,/C/D- D/E/D/C/B,/A,/ | %44
 G,/A,/G,/F,/E,/D,/ C,E,A, A,G,/F,/E,/D,/ G,3- | G,CF, F,G,E, F,A,A, A,CA, | %46
 F,/E,/F,/G,/A, A,A,A, A,CA, F,G,E, | .F,3 z3 z6 |] z12 | z12 | z12 |] %51
V:3
 F,A,C DB,G, E,G,B, C3 | D,F,A, B,G,E, C,E,G, A,3 | B,,C,D, E,F,G, A,,B,,C, D,E,F, | %3
 G,,A,,B,, C,B,,C, F,,A,,C, .F,3 | .F,,3 z3 .F,3 z3 | F,,A,,D, G,,B,,E, A,,C,F, C,E,G, | %6
 F,A,C DB,G, E,G,B, .C3 | D,F,A, B,G,E, C,E,G, .A,3 | B,,C,D, E,F,G, A,,B,,C, D,E,F, | %9
 G,,A,,B,, C,B,,C, F,,A,,C, .F,3 | G,,=B,,D, .G,3 A,,C,E, .A,3 | =B,,D,G, =B,G,E, .C,3 z3 | %12
 .C,3 z3 C,E,,A,, D,,F,,=B,, | E,,G,,C, G,,D,G, C,E,G, A,F,D, | =B,,D,F, .G,3 A,,C,E, F,D,B,, | %15
 G,,=B,,D, .E,3 F,,G,,A,, B,,C,D, | E,,F,,G,, A,,G,,A,, D,,E,,F,, G,,F,,G,, | %17
 C,E,G, A,F,D, =B,,D,F, .G,3 | A,,C,E, F,D,=B,, G,,B,,D, .E,3 | %19
 F,,G,,A,, =B,,C,D, E,,F,,G,, A,,B,,C, | D,,E,,F,, G,,F,,G,, C,E,,G,, .C,3 | %21
 F,,A,,C, .F,3 B,,D,F, .B,3 | G,,B,,E, .G,3 A,E,^C, .A,,3 | A,F,D, .A,,3 A,E,^C, .A,,3 | %24
 D,F,A, B,G,E, C,E,G, .A,3 | B,,D,F, G,E,^C, A,,C,E, .F,3 | G,,A,,B,, C,D,E, F,,G,,A,, B,,C,D, | %27
 E,,F,,G,, A,,G,,A,, D,E,F, G,A,B, | C,D,E, F,G,A, B,A,G, A,G,A, | D,F,A, DCD B,,D,F, G,F,G, | %30
 A,,C,E, .F,3 G,,A,,B,, C,D,E, | F,,G,,A,, B,,C,D, E,,F,,G,, A,,G,,A,, | %32
 D,F,A, B,A,B, C,E,G, .A,3 | B,,D,F, G,F,G, A,,C,E, .F,3 | G,,A,,B,, C,D,E, F,,G,,A,, B,,C,D, | %35
 E,,F,,G,, A,,G,,A,, D,F,A, DCD | G,3- G,A,,=B,, C,E,G, C=B,C | F,3- F,G,,A,, =B,,D,^G, =B,A,B, | %38
 E,3- E,^F,^G, C,=F,D, E,D,E, | A,,C,E, A,=B,C D,E,F, G,A,B, | C,D,E, F,G,A, =B,,C,D, E,D,E, | %41
 A,,C,E, A,G,A, D,3- D,E,^F, | G,,B,,D, G,F,G, C,3- C,D,E, | F,,A,,C, F,E,F, B,,D,F, G,F,G, | %44
 C,E,G, A,G,A, D,F,A, B,A,B,- | B,A,B, CB,C F,C,A,, F,,F,/E,/F,/G,/ | %46
 A,CA, F,/E,/F,/G,/A,/F,/ D,A,,/G,,/A,,/B,,/ C,B,,C, | F,A,C DCD E,G,B, .C3 |] %48
 D,F,A, B,A,B, C,E,G, .A,3 | B,,C,D, E,F,G, A,,B,,C, D,E,F, | G,,A,,B,, C,B,,C, F,,A,,C, F,3 |] %51
V:4
 F,A,C DB,G, E,G,B, C3 | D,F,A, B,G,E, C,E,G, A,3 | B,,C,D, E,F,G, A,,B,,C, D,E,F, | %3
 G,,A,,B,, C,B,,C, F,,A,,C, .F,3 | .F,,3 z3 .F,3 z3 | F,,A,,D, G,,B,,E, A,,C,F, C,E,G, | %6
 F,A,C DB,G, E,G,B, .C3 | D,F,A, B,G,E, C,E,G, .A,3 | B,,C,D, E,F,G, A,,B,,C, D,E,F, | %9
 G,,A,,B,, C,B,,C, F,,A,,C, .F,3 | G,,=B,,D, .G,3 A,,C,E, .A,3 | =B,,D,G, =B,G,E, .C,3 z3 | %12
 .C,3 z3 C,E,,A,, D,,F,,=B,, | E,,G,,C, G,,D,G, C,E,G, A,F,D, | =B,,D,F, .G,3 A,,C,E, F,D,B,, | %15
 G,,=B,,D, .E,3 F,,G,,A,, B,,C,D, | E,,F,,G,, A,,G,,A,, D,,E,,F,, G,,F,,G,, | %17
 C,E,G, A,F,D, =B,,D,F, .G,3 | A,,C,E, F,D,=B,, G,,B,,D, .E,3 | %19
 F,,G,,A,, =B,,C,D, E,,F,,G,, A,,B,,C, | D,,E,,F,, G,,F,,G,, C,E,,G,, .C,3 | %21
 F,,A,,C, .F,3 B,,D,F, .B,3 | G,,B,,E, .G,3 A,E,^C, .A,,3 | A,F,D, .A,,3 A,E,^C, .A,,3 | %24
 D,F,A, B,G,E, C,E,G, .A,3 | B,,D,F, G,E,^C, A,,C,E, .F,3 | G,,A,,B,, C,D,E, F,,G,,A,, B,,C,D, | %27
 E,,F,,G,, A,,G,,A,, D,E,F, G,A,B, | C,D,E, F,G,A, B,A,G, A,G,A, | D,F,A, DCD B,,D,F, G,F,G, | %30
 A,,C,E, .F,3 G,,A,,B,, C,D,E, | F,,G,,A,, B,,C,D, E,,F,,G,, A,,G,,A,, | %32
 D,F,A, B,A,B, C,E,G, .A,3 | B,,D,F, G,F,G, A,,C,E, .F,3 | G,,A,,B,, C,D,E, F,,G,,A,, B,,C,D, | %35
 E,,F,,G,, A,,G,,A,, D,F,A, DCD | G,3- G,A,,=B,, C,E,G, C=B,C | F,3- F,G,,A,, =B,,D,^G, =B,A,B, | %38
 E,3- E,^F,^G, C,=F,D, E,D,E, | A,,C,E, A,=B,C D,E,F, G,A,B, | C,D,E, F,G,A, =B,,C,D, E,D,E, | %41
 A,,C,E, A,G,A, D,3- D,E,^F, | G,,B,,D, G,F,G, C,3- C,D,E, | F,,A,,C, F,E,F, B,,D,F, G,F,G, | %44
 C,E,G, A,G,A, D,F,A, B,A,B,- | B,A,B, CB,C F,C,A,, F,,F,/E,/F,/G,/ | %46
 A,CA, F,/E,/F,/G,/A,/F,/ D,A,,/G,,/A,,/B,,/ C,B,,C, | F,A,C DCD E,G,B, .C3 |] %48
 D,F,A, B,A,B, C,E,G, .A,3 | B,,C,D, E,F,G, A,,B,,C, D,E,F, | G,,A,,B,, C,B,,C, F,,A,,C, F,3 |] %51

